src/assets/images/mintbase.svg

<svg height="183" viewBox="0 0 695 183" width="695" xmlns="http://www.w3.org/2000/svg"><g fill="#515050"><path d="m279.599187 42.6220511v97.4099999h-11.58v-81.2599999l-22.79 81.2599999h-28.55l-22.82-81.2599999v81.2599999h-11.55v-97.4099999h18.09l24.91 86.8299999h11.29l24.91-86.8299999z"/><path d="m299.359187 42.6220511h11.13v12.81h-11.13zm0 27.69h11.13v69.7199999h-11.13z"/><path d="m380.339187 89.5220511v50.5099999h-11.13v-46.9999999c0-8.49-3.9-14.75-13.08-14.75s-16.11 6.23-16.11 16.85v44.9999999h-11.17v-69.8199999h11.17v8.63c4.249667-6.7712487 11.72659-10.8319912 19.72-10.71 11 0 20.6 7.23 20.6 21.29z"/><path d="m402.019187 119.992051v-39.6599999h-9.18v-10h9.32v-17.41h11v17.39h15.46v10h-15.44v39.3799999c0 9.32 3.89 11.41 10.29 11.41h5.85v10.000264h-6c-11.54.029736-21.3-2.470264-21.3-21.110264z"/><path d="m493.879187 92.5820511v25.1799999c0 14.47-9.32 24.35-22.26 24.35-7.94 0-14.89-3.48-18.09-8.76v6.68h-11.13v-97.4099999h11.13v34.37c3.2-5.28 10.15-8.76 18.09-8.76 12.94 0 22.26 9.9 22.26 24.35zm-11.13.83c0-10.15-6.12-15.16-14.61-15.16s-14.61 5-14.61 15.16v23.5199999c0 10.15 6.12 15.16 14.61 15.16s14.61-5 14.61-15.16z"/><path d="m560.949187 70.3120511v69.7199999h-11.13v-6.68c-3.2 5.28-10.16 8.76-18.09 8.76-12.94 0-22.27-9.88-22.27-24.35v-25.1799999c0-14.47 9.33-24.35 22.27-24.35 7.93 0 14.89 3.48 18.09 8.76v-6.68zm-11.13 46.6199999v-23.5199999c0-10.15-6.13-15.16-14.61-15.16s-14.61 5-14.61 15.16v23.5199999c0 10.15 6.12 15.16 14.61 15.16s14.61-4.96 14.61-15.16z"/><path d="m577.229187 117.762051v-2.22h11.13v2.64c0 9.18 5.43 13.91 15.44 13.91 6.4 0 13.5-1.94 13.5-9.73 0-7.38-5.56-9.47-16.7-13-13.49-4.17-22.4-8.2-22.4-20.7299999 0-15.72 14.06-20.45 24.77-20.45 11.83 0 24.63 6 24.63 22v3.2h-11.13v-2.89c0-9.6-7.1-12.24-13.78-12.24-7.23 0-13.08 3.06-13.08 9.46 0 6.82 6.82 9 16 11.82 14.61 4.3199999 23.1 9.3299999 23.1 22.2699999 0 15.44-13.08 20.310037-25.32 20.310037-15.73.019963-26.16-8.070037-26.16-24.350037z"/><path d="m654.309187 108.722051v7.65c0 9.46 5.85 15.72 14.61 15.72 9.05 0 14.61-4.87 14.61-14.33h11.14c0 16.42-9.74 24.35-25.75 24.35-15.44 0-25.74-9.74-25.74-24.49v-24.8999999c0-14.75 10.3-24.49 25.74-24.49s25.75 9.74 25.75 24.49v15.9999999zm0-14.7499999v6.1599999h29.22v-6.1599999c0-9.46-5.84-15.72-14.61-15.72s-14.61 6.26-14.61 15.72z"/><path d="m125.159187 69.9920511h-12.66v-48.65c.027806-9.8691386-6.733681-18.46229742-16.3324191-20.75683342-9.5987382-2.29453599-19.5154974 2.3117616-23.9539991 11.12654302-4.4385018 8.8147815-2.2338423 19.5245699 5.3253698 25.8695665 7.5592121 6.3449967 18.4890295 6.6599301 26.4010484.7607239v31.65h-48.8400004c-11.7139596 0-21.21 9.4960405-21.21 21.21v.46 48.6399999h-12.66c-11.69463254-.004992-21.18886341 9.452727-21.22906017 21.147292-.03994229 11.694565 9.38925574 21.217121 21.08364787 21.292716 11.6943921.074699 21.2451884-9.325894 21.3554123-21.020008v-12.86h31.85c-5.8524898 7.884266-5.5218771 18.756412.7988633 26.270501 6.3207404 7.514088 16.9756849 9.701559 25.7456731 5.285612 8.769989-4.415947 13.357437-14.278411 11.084708-23.830792-2.272729-9.552382-10.81022-16.292123-20.6292444-16.285321h-48.84v-32.1c8.4368894 6.291609 20.2129051 5.437494 27.6536071-2.005718 7.440702-7.4432115 8.2908462-19.2195145 1.9963929-27.6542819h31.8400004v12.86c.11021 11.6872899 9.654497 21.0828839 21.342077 21.0095829s21.113268-9.587868 21.076982-21.2756218c-.036496-11.6877534-9.521249-21.1434415-21.209059-21.1439611zm-33.8700004-36c-5.1214001.0040454-9.7407637-3.0778985-11.7034424-7.8082946-1.9626786-4.7303962-.8820125-10.1773273 2.7379343-13.8001357 3.6199468-3.62280834 9.0660222-4.70777831 13.7979678-2.74883823 4.7319457 1.95894013 7.8175407 6.57586683 7.8175407 11.69726853-.005491 6.987368-5.6626499 12.6534705-12.6500004 12.67zm12.6500044 127.5199999c0 5.121402-3.085599 9.738329-7.8175447 11.697269-4.7319456 1.95894-10.178021.87397-13.7979678-2.748839-3.6199468-3.622808-4.7006129-9.069739-2.7379343-13.800135 1.9626787-4.730396 6.5820423-7.81234 11.7034424-7.808299 3.357641.002655 6.5767086 1.339016 8.9490444 3.715102 2.372335 2.376086 3.703609 5.597261 3.70096 8.954902zm-82.7100044 12.62c-5.1214017 0-9.7383285-3.085595-11.69726859-7.81754-1.95894008-4.731946-.87397011-10.178021 2.74883829-13.797968s9.0697395-4.700613 13.8001356-2.737934c4.7303962 1.962678 7.81234 6.582042 7.8082986 11.703442-.0055237 6.988019-5.6719824 12.65-12.6600039 12.65zm33.87-70.31c-5.1241266-.000025-9.7429324-3.088881-11.700093-7.8245117-1.9571606-4.7356305-.8666732-10.1840463 2.76236-13.8016133s9.0808726-4.6908073 13.8102858-2.7186703c4.7294132 1.9721369 7.8036371 6.6006944 7.7875108 11.7247954-.0055782 6.9896395-5.6704242 12.6544859-12.6600636 12.6599999zm70.0600004 0c-5.121401.004045-9.740764-3.077898-11.703443-7.8082945-1.962678-4.7303962-.882012-10.1773273 2.737934-13.8001357 3.619947-3.6228083 9.066023-4.7077783 13.797968-2.7488382 4.731946 1.9589401 7.817557 6.5758668 7.817557 11.6972685.011043 6.999077-5.65095 12.6834499-12.650016 12.6999999z"/></g></svg>

<?xml version="1.0" encoding="UTF-8"?>
<svg width="695px" height="183px" viewBox="0 0 695 183" version="1.1" xmlns="http://www.w3.org/2000/svg" xmlns:xlink="http://www.w3.org/1999/xlink">
    <title>Mintbase_logo</title>
    <g id="Page-1" stroke="none" stroke-width="1" fill="none" fill-rule="evenodd">
        <g id="Mintbase_logo" fill="#515050" fill-rule="nonzero">
            <polygon id="Path" points="279.599187 42.6220511 279.599187 140.032051 268.019187 140.032051 268.019187 58.7720511 245.229187 140.032051 216.679187 140.032051 193.859187 58.7720511 193.859187 140.032051 182.309187 140.032051 182.309187 42.6220511 200.399187 42.6220511 225.309187 129.452051 236.599187 129.452051 261.509187 42.6220511"></polygon>
            <path d="M299.359187,42.6220511 L310.489187,42.6220511 L310.489187,55.4320511 L299.359187,55.4320511 L299.359187,42.6220511 Z M299.359187,70.3120511 L310.489187,70.3120511 L310.489187,140.032051 L299.359187,140.032051 L299.359187,70.3120511 Z" id="Shape"></path>
            <path d="M380.339187,89.5220511 L380.339187,140.032051 L369.209187,140.032051 L369.209187,93.0320511 C369.209187,84.5420511 365.309187,78.2820511 356.129187,78.2820511 C346.949187,78.2820511 340.019187,84.5120511 340.019187,95.1320511 L340.019187,140.132051 L328.849187,140.132051 L328.849187,70.3120511 L340.019187,70.3120511 L340.019187,78.9420511 C344.268854,72.1708024 351.745777,68.1100599 359.739187,68.2320511 C370.739187,68.2320511 380.339187,75.4620511 380.339187,89.5220511 Z" id="Path"></path>
            <path d="M402.019187,119.992051 L402.019187,80.3320511 L392.839187,80.3320511 L392.839187,70.3320511 L402.159187,70.3320511 L402.159187,52.9220511 L413.159187,52.9220511 L413.159187,70.3120511 L428.619187,70.3120511 L428.619187,80.3120511 L413.179187,80.3120511 L413.179187,119.692051 C413.179187,129.012051 417.069187,131.102051 423.469187,131.102051 L429.319187,131.102051 L429.319187,141.102315 L423.319187,141.102315 C411.779187,141.132051 402.019187,138.632051 402.019187,119.992051 Z" id="Path"></path>
            <path d="M493.879187,92.5820511 L493.879187,117.762051 C493.879187,132.232051 484.559187,142.112051 471.619187,142.112051 C463.679187,142.112051 456.729187,138.632051 453.529187,133.352051 L453.529187,140.032051 L442.399187,140.032051 L442.399187,42.6220511 L453.529187,42.6220511 L453.529187,76.9920511 C456.729187,71.7120511 463.679187,68.2320511 471.619187,68.2320511 C484.559187,68.2320511 493.879187,78.1320511 493.879187,92.5820511 Z M482.749187,93.4120511 C482.749187,83.2620511 476.629187,78.2520511 468.139187,78.2520511 C459.649187,78.2520511 453.529187,83.2520511 453.529187,93.4120511 L453.529187,116.932051 C453.529187,127.082051 459.649187,132.092051 468.139187,132.092051 C476.629187,132.092051 482.749187,127.092051 482.749187,116.932051 L482.749187,93.4120511 Z" id="Shape"></path>
            <path d="M560.949187,70.3120511 L560.949187,140.032051 L549.819187,140.032051 L549.819187,133.352051 C546.619187,138.632051 539.659187,142.112051 531.729187,142.112051 C518.789187,142.112051 509.459187,132.232051 509.459187,117.762051 L509.459187,92.5820511 C509.459187,78.1120511 518.789187,68.2320511 531.729187,68.2320511 C539.659187,68.2320511 546.619187,71.7120511 549.819187,76.9920511 L549.819187,70.3120511 L560.949187,70.3120511 Z M549.819187,116.932051 L549.819187,93.4120511 C549.819187,83.2620511 543.689187,78.2520511 535.209187,78.2520511 C526.729187,78.2520511 520.599187,83.2520511 520.599187,93.4120511 L520.599187,116.932051 C520.599187,127.082051 526.719187,132.092051 535.209187,132.092051 C543.699187,132.092051 549.819187,127.132051 549.819187,116.932051 Z" id="Shape"></path>
            <path d="M577.229187,117.762051 L577.229187,115.542051 L588.359187,115.542051 L588.359187,118.182051 C588.359187,127.362051 593.789187,132.092051 603.799187,132.092051 C610.199187,132.092051 617.299187,130.152051 617.299187,122.362051 C617.299187,114.982051 611.739187,112.892051 600.599187,109.362051 C587.109187,105.192051 578.199187,101.162051 578.199187,88.6320511 C578.199187,72.9120511 592.259187,68.1820511 602.969187,68.1820511 C614.799187,68.1820511 627.599187,74.1820511 627.599187,90.1820511 L627.599187,93.3820511 L616.469187,93.3820511 L616.469187,90.4920511 C616.469187,80.8920511 609.369187,78.2520511 602.689187,78.2520511 C595.459187,78.2520511 589.609187,81.3120511 589.609187,87.7120511 C589.609187,94.5320511 596.429187,96.7120511 605.609187,99.5320511 C620.219187,103.852051 628.709187,108.862051 628.709187,121.802051 C628.709187,137.242051 615.629187,142.112088 603.389187,142.112088 C587.659187,142.132051 577.229187,134.042051 577.229187,117.762051 Z" id="Path"></path>
            <path d="M654.309187,108.722051 L654.309187,116.372051 C654.309187,125.832051 660.159187,132.092051 668.919187,132.092051 C677.969187,132.092051 683.529187,127.222051 683.529187,117.762051 L694.669187,117.762051 C694.669187,134.182051 684.929187,142.112051 668.919187,142.112051 C653.479187,142.112051 643.179187,132.372051 643.179187,117.622051 L643.179187,92.7220511 C643.179187,77.9720511 653.479187,68.2320511 668.919187,68.2320511 C684.359187,68.2320511 694.669187,77.9720511 694.669187,92.7220511 L694.669187,108.722051 L654.309187,108.722051 Z M654.309187,93.9720511 L654.309187,100.132051 L683.529187,100.132051 L683.529187,93.9720511 C683.529187,84.5120511 677.689187,78.2520511 668.919187,78.2520511 C660.149187,78.2520511 654.309187,84.5120511 654.309187,93.9720511 Z" id="Shape"></path>
            <path d="M125.159187,69.9920511 L112.499187,69.9920511 L112.499187,21.3420511 C112.526993,11.4729125 105.765506,2.87975368 96.1667679,0.585217683 C86.5680297,-1.70931831 76.6512705,2.89697928 72.2127688,11.7117607 C67.774267,20.5265422 69.9789265,31.2363306 77.5381386,37.5813272 C85.0973507,43.9263239 96.0271681,44.2412573 103.939187,38.3420511 L103.939187,69.9920511 L55.0991866,69.9920511 C43.385227,69.9920511 33.8891866,79.4880916 33.8891866,91.2020511 C33.8891866,91.3620511 33.8891866,91.5120511 33.8891866,91.6620511 L33.8891866,91.6620511 L33.8891866,140.302051 L21.2291866,140.302051 C9.53455406,140.297059 0.040323193,149.754778 0.000126429728,161.449343 C-0.0398158636,173.143908 9.38938217,182.666464 21.0837743,182.742059 C32.7781664,182.816758 42.3289627,173.416165 42.4391866,161.722051 L42.4391866,161.722051 L42.4391866,148.862051 L74.2891866,148.862051 C68.4366968,156.746317 68.7673095,167.618463 75.0880499,175.132552 C81.4087903,182.64664 92.0637348,184.834111 100.833723,180.418164 C109.603712,176.002217 114.19116,166.139753 111.918431,156.587372 C109.645702,147.03499 101.108211,140.295249 91.2891866,140.302051 L42.4491866,140.302051 L42.4491866,108.202051 C50.886076,114.49366 62.6620917,113.639545 70.1027937,106.196333 C77.5434957,98.7531215 78.3936399,86.9768185 72.0991866,78.5420511 L103.939187,78.5420511 L103.939187,91.4020511 L103.939187,91.4020511 C104.049397,103.089341 113.593684,112.484935 125.281264,112.411634 C136.968844,112.338333 146.394532,102.823766 146.358246,91.1360122 C146.32175,79.4482588 136.836997,69.9925707 125.149187,69.9920511 L125.159187,69.9920511 Z M91.2891866,33.9920511 C86.1677865,33.9960965 81.5484229,30.9141526 79.5857442,26.1837565 C77.6230656,21.4533603 78.7037317,16.0064292 82.3236785,12.3836208 C85.9436253,8.76081246 91.3897007,7.67584249 96.1216463,9.63478257 C100.853592,11.5937227 103.939187,16.2106494 103.939187,21.3320511 C103.933696,28.3194191 98.2765371,33.9855216 91.2891866,34.0020511 L91.2891866,33.9920511 Z M103.939191,161.512051 C103.939191,166.633453 100.853592,171.25038 96.1216463,173.20932 C91.3897007,175.16826 85.9436253,174.08329 82.3236785,170.460481 C78.7037317,166.837673 77.6230656,161.390742 79.5857442,156.660346 C81.5484229,151.92995 86.1677865,148.848006 91.2891866,148.852047 C94.6468276,148.854702 97.8658952,150.191063 100.238231,152.567149 C102.610566,154.943235 103.94184,158.16441 103.939191,161.522051 L103.939191,161.512051 Z M21.2291866,174.132051 C16.1077849,174.132051 11.4908581,171.046456 9.53191801,166.314511 C7.57297793,161.582565 8.6579479,156.13649 12.2807563,152.516543 C15.9035647,148.896596 21.3504958,147.81593 26.0808919,149.778609 C30.8112881,151.741287 33.8932319,156.360651 33.8891905,161.482051 C33.8836668,168.47007 28.2172081,174.132051 21.2291866,174.132051 L21.2291866,174.132051 Z M55.0991866,103.822051 C49.97506,103.822026 45.3562542,100.73317 43.3990936,95.9975393 C41.441933,91.2619088 42.5324204,85.813493 46.1614536,82.195926 C49.7904868,78.578359 55.2423262,77.5051187 59.9717394,79.4772557 C64.7011526,81.4493926 67.7753765,86.0779501 67.7592502,91.2020511 C67.753672,98.1916906 62.088826,103.856537 55.0991866,103.862051 L55.0991866,103.822051 Z M125.159187,103.822051 C120.037786,103.826096 115.418423,100.744153 113.455744,96.0137565 C111.493066,91.2833603 112.573732,85.8364292 116.193678,82.2136208 C119.813625,78.5908125 125.259701,77.5058425 129.991646,79.4647826 C134.723592,81.4237227 137.809203,86.0406494 137.809203,91.1620511 C137.820246,98.1611281 132.158253,103.845501 125.159187,103.862051 L125.159187,103.822051 Z" id="Shape"></path>
        </g>
    </g>
</svg>
